img/calendar_right.svg

<svg width="9" height="15" viewBox="0 0 9 15" fill="none" xmlns="http://www.w3.org/2000/svg">
<path fill-rule="evenodd" clip-rule="evenodd" d="M7.776 8.08383L2.32533 13.7665C2.008 14.0778 1.52267 14.0778 1.224 13.7665C0.925334 13.4551 0.925334 12.9491 1.224 12.6183L6.13333 7.5L1.224 2.38174C0.925335 2.07036 0.925335 1.54491 1.224 1.23353C1.52267 0.922155 2.008 0.922155 2.32533 1.23353L7.776 6.93563C8.07467 7.24701 8.07467 7.75299 7.776 8.08383Z" fill="#222222" stroke="#222222" stroke-width="0.2"/>
</svg>

<svg width="9" height="15" viewBox="0 0 9 15" fill="none" xmlns="http://www.w3.org/2000/svg"><path fill-rule="evenodd" clip-rule="evenodd" d="M7.776 8.084l-5.45 5.683c-.318.31-.803.31-1.102 0a.848.848 0 0 1 0-1.149L6.134 7.5l-4.91-5.118a.848.848 0 0 1 0-1.148c.299-.312.784-.312 1.101 0l5.451 5.702a.848.848 0 0 1 0 1.148z" fill="#222" stroke="#222" stroke-width=".2"/></svg>
